!!!!SEGMENT: pl-kk--kk-i-1--008_anonim--rorate-caeli.krn
!!!cenid: 15xx:688
!!!COM: Anonim
!!!COM-rismID: pe30004985
!!!CDT:
!!!CNT:
!!!OTL: Rorate caeli
!!!PDT:
!!!AGN:
!!!YEC: Copyright 2022 Narodowy Instytut Fryderyka Chopina (https://polishscores.org)
!!!YEM: License CC-BY-4.0 (https://creativecommons.org/licenses/by/4.0)
!!!SMS-siglum: PL-Kk
!!!SMS-shelfmark: Kk.I.1
!!!SMS-shelfwork: 008 W
!!!SMS-variant:
!!!SMS-altvar:
!!!NIFC-rismSourceID: 300257954
!!!NIFC-rismChildID: 300257962
!!!NIFC-islandoraID: pl-kk:1
!!!URL-pdf-islandora: https://repozytorium.nifc.pl/islandora/object/pl-kk%3A1/datastream/PDF/view
!!!URL-scan: https://polish.musicsources.pl/pl/lokalizacje/galeria/rekopisy/5736 @EN{Scan on Polish Music Sources Website} @PL{Skany w portalu Dziedzictwo Muzyki Polskiej w otwartym dostępie}
!!!IIIF: https://repozytorium.nifc.pl/islandora/object/pl-kk%3A1/datastream/IIIF/view
!!!ONB-nifc: UWAGA: Cantus (s. 59v-60v, skan 0062-0063), Altus (s. 60r-61r, skan 0252-0253), Tenor (s. 59v-60r, skan 0448), Bassus (s. 58r-59r, skan 0619-0620).
!!!AIN: 1 alto 1 bass 1 soprn 1 tenor
!!!key: D
**kern	**text	**kern	**text	**kern	**kern	**text	**kern	**text
*part5	*	*part4	*	*part3	*part2	*	*part1	*
*staff5	*	*staff4	*	*staff3	*staff2	*	*staff1	*
*I"BASSVS	*	*I"TENOR	*	*I"[QVINTVS]	*I"ALTVS	*	*I"CANTVS	*
*I'B	*	*I'T	*	*I'[Q]	*I'A	*	*I'C	*
*Ibass	*	*Itenor	*	*	*Ialto	*	*Isoprn	*
*ICvox	*	*ICvox	*	*ICvox	*ICvox	*	*ICvox	*
*clefF4	*	*clefC4	*	*clefC3	*clefC3	*	*clefC3	*
*k[]	*	*k[]	*	*k[]	*k[]	*	*k[]	*
*D:	*	*D:	*	*D:	*D:	*	*D:	*
*M2/1	*	*M2/1	*	*M2/1	*M2/1	*	*M2/1	*
*met(C|)	*	*met(C|)	*	*met(C|)	*met(C|)	*	*met(C|)	*
=1-	=1-	=1-	=1-	=1-	=1-	=1-	=1-	=1-
*xywh-#619:5775,1275,4462,998	*	*xywh-#448:1239,390,4331,1061	*	*	*xywh-#252:5759,415,4354,1069	*	*xywh-#62:1137,438,4283,1010	*
*	*	*lig	*	*	*	*	*	*
!LO:TX:a:t=Ad aequales 5. vocum Mart. Paligon.	!	!LO:TX:a:t=Ad aequales. 5. vocum Martſ. Paligonÿ.	!	!LO:TX:t=P:problem=głosu Quintus nie ma w Kk I.1\nJest w Kk I.360\nJakby co, to mam przepisany.	!LO:TX:a:t=Ad aequales 5. vocum Mart. Palig.	!	!LO:TX:a:t=Ad aequales 5. vocum Mart. Paligony.	!
00r	.	1C	Ro-	0ryy	1e	Ro-	1g	Ro-
.	.	1D	.	.	1.d	-ra-	0f	-ra-
*	*	*Xlig	*	*	*	*	*	*
=2-	=2-	=2-	=2-	=2-	=2-	=2-	=2-	=2-
*	*	*lig	*	*	*	*	*	*
.	.	1D	-ra-	0ryy	.	.	.	.
.	.	.	.	.	2d\	-te	.	.
.	.	1A	.	.	2.c\	coe-	2e\	-te
.	.	.	.	.	.	.	2f\	coe-
.	.	.	.	.	4d\	.	.	.
*	*	*Xlig	*	*	*	*	*	*
=3-	=3-	=3-	=3-	=3-	=3-	=3-	=3-	=3-
*lig	*	*	*	*	*	*	*	*
1C	Ro-	1c	-te	0ryy	4e\	.	1g	-li
.	.	.	.	.	4f\	.	.	.
.	.	.	.	.	2e\	.	.	.
!	!	!LO:TX:t=P:global:problem=oddech jako rozdzielacz słów	!	!	!	!	!	!
1D	.	1A,<	.	.	0d	-li	2r	.
.	.	.	.	.	.	.	2f\	ro-
*Xlig	*	*	*	*	*	*	*	*
=4-	=4-	=4-	=4-	=4-	=4-	=4-	=4-	=4-
2D/	-ra-	1A	coe-	0ryy	.	.	2f\	-ra-
2F\	-te	.	.	.	.	.	2d\	-te-
*	*	*lig	*	*	*	*	*	*
1E	coe-	1B	.	.	1r	.	1e	-coe-
=5-	=5-	=5-	=5-	=5-	=5-	=5-	=5-	=5-
2AA/	-li	1c	.	0ryy	2r	.	1e	-li
2.A\	.	.	.	.	2e\	ro-	.	.
*	*	*Xlig	*	*	*	*	*	*
.	.	1A	.	.	2c/	-ra-	2r	.
4G\	.	.	.	.	.	.	.	.
4F\	.	.	.	.	2c/	-te	2f\	ro-
4E\	.	.	.	.	.	.	.	.
=6-	=6-	=6-	=6-	=6-	=6-	=6-	=6-	=6-
*	*	*lig	*	*	*	*	*	*
2D/	.	1A	-li	0ryy	2d\	coe-	2f\	-ra-
2F\	.	.	.	.	2A/	-li	2d\	-te
1E	.	1G,<	.	.	1B	de	1e	coe-
*	*	*Xlig	*	*	*	*	*	*
=7-	=7-	=7-	=7-	=7-	=7-	=7-	=7-	=7-
*	*	*lig	*	*	*	*	*	*
2r	.	1A	de-	0ryy	2.c/	ſu-	2e\	-li
2AA/	de-	.	.	.	.	.	1a	de-
.	.	.	.	.	4d\	.	.	.
*	*	*	*	*	*custos:d	*	*	*
2.AA/	-su-	1c	.	.	0e	-per	.	.
*	*	*	*	*	*	*	*custos:g	*
.	.	.	.	.	.	.	2a\	-ſu-
4BB/	.	.	.	.	.	.	.	.
*	*	*Xlig	*	*	*	*	*	*
!	!	!	!	!	!	!	!LO:LB:g=original	!
=8-	=8-	=8-	=8-	=8-	=8-	=8-	=8-	=8-
*	*	*	*	*	*	*	*xywh-#62:1231,1273,4306,957	*
*	*	*lig	*	*	*	*	*	*
4C/	-­-	1c	-ſu-	0ryy	.	.	1g	-per
4D/	.	.	.	.	.	.	.	.
4E\	.	.	.	.	.	.	.	.
*custos:G	*	*	*	*	*	*	*	*
4F\	.	.	.	.	.	.	.	.
*	*	*custos:c	*	*	*	*	*	*
*xywh-#619:5732,2144,4505,860	*	*	*	*	*xywh-#252:5800,1341,4371,862	*	*	*
!LO:LB:g=original	!	!	!	!	!LO:LB:g=original	!	!	!
2G\	.	1B	.	.	2d\	.	2r	.
2E\	.	.	.	.	2e\	.	1g\	de-
*	*	*Xlig	*	*	*	*	*	*
!	!	!LO:LB:g=original	!	!	!	!	!	!
=9-	=9-	=9-	=9-	=9-	=9-	=9-	=9-	=9-
*	*	*xywh-#448:1280,1286,4308,867	*	*	*	*	*	*
1A	.	1c	.	0ryy	1c	.	.	.
.	.	.	.	.	.	.	2f#X\	-ſu-
*	*	*lig	*	*	*	*	*	*
1G	-per	1d	.	.	2r	.	0g	-per
.	.	.	.	.	2d\	de	.	.
=10-	=10-	=10-	=10-	=10-	=10-	=10-	=10-	=10-
2r	.	1c	.	0ryy	2e\	.	.	.
2C/	de-	.	.	.	1c	Su-	.	.
*	*	*Xlig	*	*	*	*	*	*
0GG	-ſu-	1d	.	.	.	.	2r	.
.	.	.	.	.	4B/	.	2g\	et
.	.	.	.	.	4A/	.	.	.
=11-	=11-	=11-	=11-	=11-	=11-	=11-	=11-	=11-
*	*	*lig	*	*	*	*	*	*
.	.	1d	-per	0ryy	1B	-per	2g\	nu-
.	.	.	.	.	.	.	2g\	-bes
0C	-per	1c,<	.	.	1c	.	1.e	plu-
*	*	*Xlig	*	*	*	*	*	*
=12-	=12-	=12-	=12-	=12-	=12-	=12-	=12-	=12-
.	.	1G	et	0ryy	1r	.	.	.
.	.	.	.	.	.	.	2fny\	.
*	*	*lig	*	*	*	*	*	*
1r	.	1B	nu-	.	1d	et	0g	-ant
=13-	=13-	=13-	=13-	=13-	=13-	=13-	=13-	=13-
1C	et	1c	.	0ryy	2e\	nu-	.	.
.	.	.	.	.	2e\	-bes	.	.
*lig	*	*Xlig	*	*	*	*	*	*
1D	nu-	1A	-bes	.	1.f	plu-	2r	.
.	.	.	.	.	.	.	2a\	et
=14-	=14-	=14-	=14-	=14-	=14-	=14-	=14-	=14-
1F	.	1A,<	.	0ryy	.	.	2a\	nu-
.	.	.	.	.	2d\	-ant	1a	-bes
*Xlig	*	*lig	*	*	*	*	*	*
1E	-bes	1B	plu-	.	0e	iuſ-	.	.
.	.	.	.	.	.	.	2g#X\	plu-
=15-	=15-	=15-	=15-	=15-	=15-	=15-	=15-	=15-
2r	.	1c	.	0ryy	.	.	2a\	-ant
*	*ij	*	*	*	*	*	*	*
2C/	et-	.	.	.	.	.	2e\	et
*	*	*Xlig	*	*	*	*	*	*
2.D/	-nu-	1A	.	.	1d	-tum	1f	nu-
4C/	.	.	.	.	.	.	.	.
=16-	=16-	=16-	=16-	=16-	=16-	=16-	=16-	=16-
4D/	.	1A,<	-ant	0ryy	2r	.	2f\	-bes
4E\	.	.	.	.	.	.	.	.
*	*	*	*	*	*	*ij	*	*
2F\	.	.	.	.	1c	et	1f	plu-
*	*	*lig	*	*	*	*	*	*
2C/	-bes	1G	iu-	.	.	.	.	.
*	*Xij	*	*	*	*	*	*	*
*	*	*	*	*	*	*	*custos:f	*
2C/	plu-	.	.	.	2c/	nu-	2e\	-ant
!	!	!	!	!	!	!	!LO:LB:g=original	!
=17-	=17-	=17-	=17-	=17-	=17-	=17-	=17-	=17-
*	*	*	*	*	*	*	*xywh-#62:1173,2042,4371,922	*
*custos:F	*	*	*	*	*	*	*	*
1FF	-ant	1F	.	0ryy	2c/	-bes	1f	iuſ-
.	.	.	.	.	2d\	plu-	.	.
*	*	*Xlig	*	*	*	*	*	*
*xywh-#619:5713,2880,4548,903	*	*	*	*	*	*	*	*
!LO:LB:g=original	!	!	!	!	!	!	!	!
2r	.	1A	.	.	2e\	-ant	0c	-tum
*	*	*	*	*	*custos:c	*	*	*
1F\	plu-	.	.	.	2f\	iuſ-	.	.
!	!	!	!	!	!LO:LB:g=original	!	!	!
=18-	=18-	=18-	=18-	=18-	=18-	=18-	=18-	=18-
*	*	*	*	*	*xywh-#252:5834,2077,4411,891	*	*	*
*	*	*lig	*	*	*	*	*	*
.	.	1G	.	0ryy	2c/	-tum	.	.
*	*	*	*	*	*	*Xij	*	*
2E\	-ant	.	.	.	2c/	plu-	.	.
1D	iuſ-	1F	.	.	2d\	-ant	2r	.
.	.	.	.	.	2B/	iuſ-	1f\	iu
*	*	*Xlig	*	*	*	*	*	*
=19-	=19-	=19-	=19-	=19-	=19-	=19-	=19-	=19-
*	*	*custos:G	*	*	*	*	*	*
0C	-tum	1G	.	0ryy	1c	-tum	.	.
*	*	*	*	*	*	*Xij	*	*
.	.	.	.	.	.	.	4e\	.
.	.	.	.	.	.	.	4d\	.
*	*	*xywh-#448:1239,2031,4349,932	*	*	*	*	*	*
!	!	!LO:LB:g=original	!	!	!	!	!	!
*	*	*lig	*	*	*	*	*	*
.	.	1G	-ſtum	.	1r	.	1e	ſtum
=20-	=20-	=20-	=20-	=20-	=20-	=20-	=20-	=20-
2r	.	1F,<	.	0ryy	1c	a-	1f	.
2F\	a-	.	.	.	.	.	.	.
*	*	*Xlig	*	*	*	*	*	*
2D\	-pe-	1F	a-	.	1d	-pe-	2r	.
2BB-X/	-ri-	.	.	.	.	.	2f\	a-
=21-	=21-	=21-	=21-	=21-	=21-	=21-	=21-	=21-
1D	-a-	1F	-pe-	0ryy	2d\	-ri-	2f\	-pe-
.	.	.	.	.	2d\	-a-	1f	-ri-
0C	-tur	1G	-ri-	.	1G	-tur	.	.
.	.	.	.	.	.	.	4e\	.
.	.	.	.	.	.	.	4d\	.
=22-	=22-	=22-	=22-	=22-	=22-	=22-	=22-	=22-
.	.	1G	-a-	0ryy	1r	.	2.e\	-a-
.	.	.	.	.	.	.	4d\	.
*	*	*lig	*	*	*	*ij	*	*
1r	.	1A	.	.	2.c/	a	4e\	.
.	.	.	.	.	.	.	4f\	.
.	.	.	.	.	.	.	1gny\	.
.	.	.	.	.	4d\	.	.	.
=23-	=23-	=23-	=23-	=23-	=23-	=23-	=23-	=23-
1C	a-	1c	.	0ryy	4e\	pe-	.	.
.	.	.	.	.	4d\	.	.	.
.	.	.	.	.	4e\	.	2g\	-tur
.	.	.	.	.	4f\	.	.	.
*	*	*Xlig	*	*	*	*	*	*
1C	-pe-	1G,<	-tur	.	2g\	.	1e	ter-
.	.	.	.	.	4f\	-ri-	.	.
.	.	.	.	.	4e\	.	.	.
=24-	=24-	=24-	=24-	=24-	=24-	=24-	=24-	=24-
*	*	*lig	*	*	*	*	*	*
2D/	-ri-	1F	ter-	0ryy	2d\	-a-	1f	.
1F	-a-	.	.	.	2c/	-tur	.	.
*	*	*	*	*	*	*Xij	*	*
.	.	1G	.	.	2r	.	1c	-ra
2E\	-tur	.	.	.	2c/	a-	.	.
*	*	*Xlig	*	*	*	*	*	*
=25-	=25-	=25-	=25-	=25-	=25-	=25-	=25-	=25-
*	*	*lig	*	*	*	*	*	*
2F\	.	1F	.	0ryy	2A/	-pe-	2r	.
4D\	ter-	.	.	.	1d	-ri-	2f\	et
4E\	.	.	.	.	.	.	.	.
4F\	.	1D	.	.	.	.	2f\	ger-
4G\	.	.	.	.	.	.	.	.
*	*	*	*	*	*custos:d	*	*custos:f	*
2.A\	.	.	.	.	2d\	-a-	2f\	-mi-
*	*	*Xlig	*	*	*	*	*	*
!	!	!	!	!	!LO:LB:g=original	!	!LO:LB:g=original	!
=26-	=26-	=26-	=26-	=26-	=26-	=26-	=26-	=26-
*	*	*	*	*	*xywh-#252:5754,2744,4475,1064	*	*xywh-#62:1243,2836,4289,1022	*
.	.	1D,<	-ra	0ryy	1d	-tur	0.f	-net
4G\	.	.	.	.	.	.	.	.
4F\	.	.	.	.	.	.	.	.
*custos:D	*	*	*	*	*	*	*	*
4E\	.	.	.	.	.	.	.	.
*xywh-#620:869,637,4326,912	*	*	*	*	*	*	*	*
!LO:PB:g=original	!	!	!	!	!	!	!	!
1D	-ra	1F	et	.	1d	ter-	.	.
=27-	=27-	=27-	=27-	=27-	=27-	=27-	=27-	=27-
2r	.	1F	ger-	0ryy	0c	-ra	.	.
1F	et	.	.	.	.	.	.	.
.	.	1G	-mi-	.	.	.	2r	.
2E\	ger-	.	.	.	.	.	2c/	et
=28-	=28-	=28-	=28-	=28-	=28-	=28-	=28-	=28-
*	*	*lig	*	*	*	*	*	*
2F\	.	1F	-net	0ryy	1r	.	2d\	.
2D/	-mi-	.	.	.	.	.	1f	ger-
1C	-net	1G	.	.	2r	.	.	.
.	.	.	.	.	1c\	et	2e\	-mi-
*	*	*Xlig	*	*	*	*	*	*
=29-	=29-	=29-	=29-	=29-	=29-	=29-	=29-	=29-
*lig	*	*lig	*	*	*	*	*	*
1FF	Sal-	1F	.	0ryy	.	.	2f\	-net
.	.	.	.	.	2c\	ger-	2c/	.
*col	*	*	*	*	*	*	*	*
*	*	*custos:D	*	*	*	*	*	*
2.BB-X/	.	1D,<	.	.	2d\	-mi-	2.d\	Sal-
.	.	.	.	.	2f\	-net	.	.
*Xlig	*	*Xlig	*	*	*	*	*	*
4AA/	.	.	.	.	.	.	4c/	-ua-
*Xcol	*	*	*	*	*	*	*	*
!	!	!LO:LB:g=original	!	!	!	!	!	!
=30-	=30-	=30-	=30-	=30-	=30-	=30-	=30-	=30-
*	*	*xywh-#448:1275,2711,4343,996	*	*	*	*	*	*
*	*	*lig	*	*	*	*	*	*
4GG/	-ua-	1D	sal-	0ryy	2d\	Sal-	4B-X/	-to-
4FF/	.	.	.	.	.	.	4A/	.
2GG/	-to-	.	.	.	2B-X/	-ua-	2B-X/	.
1FF	-rem	1F	.	.	1c	-to-	2A/	-rem
.	.	.	.	.	.	.	1f\	et
*	*	*Xlig	*	*	*	*	*	*
=31-	=31-	=31-	=31-	=31-	=31-	=31-	=31-	=31-
*	*	*lig	*	*	*	*	*	*
1r	.	1C	-ua-	0ryy	1c	-rem	.	.
.	.	.	.	.	.	.	2e\	ger-
*lig	*	*	*	*	*	*	*	*
1FF	Sal-	1F	.	.	2r	.	2f\	-mi-
.	.	.	.	.	1f\	Sal-	2c/	-net
*	*	*Xlig	*	*	*	*	*	*
=32-	=32-	=32-	=32-	=32-	=32-	=32-	=32-	=32-
1BB-X	.	1D	.	0ryy	.	.	1.d	Sal-
.	.	.	.	.	2f\	-ua-	.	.
*Xlig	*	*lig	*	*	*	*	*	*
2GG/	-ua-	1D	-to-	.	2f\	-to-	.	.
2BB-X/	-to-	.	.	.	1d\	-rem	2d\	-ua-
=33-	=33-	=33-	=33-	=33-	=33-	=33-	=33-	=33-
1AA	-rem	1E	.	0ryy	.	.	2f\	-to-
.	.	.	.	.	2c#X/	.	2e\	-rem
*	*	*Xlig	*	*	*	*	*	*
*	*ij	*lig	*	*	*	*	*	*
*	*	*	*	*	*	*	*custos:d	*
1D	Sal-	1F	.	.	2d\	.	1d	Sal-
.	.	.	.	.	2A/	.	.	.
!	!	!	!	!	!	!	!LO:PB:g=original	!
=34-	=34-	=34-	=34-	=34-	=34-	=34-	=34-	=34-
*	*	*	*	*	*	*	*xywh-#62:5955,568,4377,987	*
2.GG/	-ua-	1D	.	0ryy	2.B-X/	.	2d\	-ua-
.	.	.	.	.	.	.	2d\	-to-
4AA/	.	.	.	.	4A/	.	.	.
*	*	*Xlig	*	*	*	*	*	*
2BB-X/	.	[1Dl	-rem.	.	2G/	.	[1dl	-rem.
*	*	*	*	*	*custos:G	*	*	*
2AA/	.	.	.	.	2F/	.	.	.
!	!	!	!	!	!LO:PB:g=original	!	!	!
=35-	=35-	=35-	=35-	=35-	=35-	=35-	=35-	=35-
*	*	*	*	*	*xywh-#253:1250,467,4334,875	*	*	*
2GG/	-to-	0D_	.	0ryy	2G/	.	0d_	.
2FF#X/	.	.	.	.	2A/	.	.	.
1GG	.	.	.	.	1B-X	.	.	.
=36-	=36-	=36-	=36-	=36-	=36-	=36-	=36-	=36-
0Dl	-rem	0D]	.	0ryy	0Al	.	0d]	.
*	*Xij	*	*	*	*	*	*	*
!LO:LB:g=original	!	!	!	!	!	!	!	!
=37||	=37||	=37||	=37||	=37||	=37||	=37||	=37||	=37||
*xywh-#620:948,1414,4326,867	*	*	*	*	*	*	*	*
1F	Be-	1F	Be-	0ryy	1.cny	Be-	2r	.
.	.	.	.	.	.	.	1f	Be-
*	*	*lig	*	*	*	*	*	*
1C	-ne-	1G	-ne-	.	.	.	.	.
.	.	.	.	.	2c/	-ne-	2e\	-ne-
=38-	=38-	=38-	=38-	=38-	=38-	=38-	=38-	=38-
2FF/	.	1A	.	0ryy	2c/	-di-	2.f\	-di-
2.F\	-di-	.	.	.	2c/	-xi-	.	.
.	.	.	.	.	.	.	4e\	.
*	*	*Xlig	*	*	*	*	*	*
.	.	1A	-di-	.	1A	-sti	4d\	.
4E\	.	.	.	.	.	.	4c\	.
4D\	-xiſ-	.	.	.	.	.	4d\	.
4C/	.	.	.	.	.	.	4e\	.
=39-	=39-	=39-	=39-	=39-	=39-	=39-	=39-	=39-
1D	-ti	1A	-xiſ-	0ryy	1d	.	2f\	.
.	.	.	.	.	.	.	2f\	-xi-
2AA/	.	1A	-ti	.	1.c	Do-	1e	-ſti
2.A\	Do-	.	.	.	.	.	.	.
=40-	=40-	=40-	=40-	=40-	=40-	=40-	=40-	=40-
.	.	1A	Do-	0ryy	.	.	2.a\	do-
4G\	.	.	.	.	.	.	.	.
4F\	.	.	.	.	2c/	-mi-	.	.
4E\	.	.	.	.	.	.	4g\	.
2D/	.	2A/	-mi-	.	2d\	-ne	2f\	.
*	*	*custos:A	*	*	*	*	*	*
2C#X/	-mi-	2A/	-ne	.	2e\	.	2e\	.
!	!	!LO:PB:g=original	!	!	!	!	!	!
=41-	=41-	=41-	=41-	=41-	=41-	=41-	=41-	=41-
*	*	*xywh-#448:5958,571,4414,943	*	*	*	*	*	*
*	*	*lig	*	*	*	*	*	*
1D	-ne	1A	ter-	0ryy	1f	.	1d	-mi-
2AA/	.	1c	.	.	1e	Do-	1c	-ne
2Cny/	ter-	.	.	.	.	.	.	.
*	*	*Xlig	*	*	*	*	*	*
=42-	=42-	=42-	=42-	=42-	=42-	=42-	=42-	=42-
2D/	.	1A	-ram	0ryy	2d\	-mi-	2r	.
*	*	*	*	*	*	*	*custos:d	*
1F	-ram	.	.	.	2c/	-ne	2c/	ter-
!	!	!	!	!	!	!	!LO:LB:g=original	!
*	*	*	*	*	*	*	*xywh-#62:5873,1302,4518,916	*
*	*	*lig	*	*	*	*	*	*
.	.	1A	tu-	.	4A/	.	2d\	.
.	.	.	.	.	4G/	.	.	.
2F\	.	.	.	.	4A/	ter-	1f\	.
.	.	.	.	.	4Bny/	.	.	.
=43-	=43-	=43-	=43-	=43-	=43-	=43-	=43-	=43-
*	*	*	*	*	*custos:c	*	*	*
1C	.	1G	.	0ryy	1c	-ram	.	.
.	.	.	.	.	.	.	4e\	.
.	.	.	.	.	.	.	4d\	.
*	*	*Xlig	*	*	*	*	*	*
!	!	!	!	!	!LO:LB:g=original	!	!	!
*	*	*	*	*	*xywh-#253:1346,1287,4181,881	*	*	*
*	*	*lig	*	*	*	*	*	*
1C	tu-	1G	-am	.	1c	tu-	1e	-ram
=44-	=44-	=44-	=44-	=44-	=44-	=44-	=44-	=44-
2FF/	-am	1A	.	0ryy	0c	-am	1f	tu-
1F	a-	.	.	.	.	.	.	.
*	*	*Xlig	*	*	*	*	*	*
*	*	*lig	*	*	*	*	*	*
.	.	1G	a-	.	.	.	1c	-am
2E\	-uer-	.	.	.	.	.	.	.
=45-	=45-	=45-	=45-	=45-	=45-	=45-	=45-	=45-
2F\	.	1F	.	0ryy	2r	.	2r	.
2D/	-tiſ-	.	.	.	2d\	a-	1f	a-
*	*	*Xlig	*	*	*	*	*	*
*	*	*lig	*	*	*	*	*	*
1C	.	1G	-uer-	.	1g	-uer-	.	.
.	.	.	.	.	.	.	2e\	.
=46-	=46-	=46-	=46-	=46-	=46-	=46-	=46-	=46-
*custos:F	*	*	*	*	*	*	*	*
2FF/	-ti	1A	.	0ryy	1.f	-tiſ-	2f\	-uer-
*xywh-#620:976,2090,4247,940	*	*	*	*	*	*	*	*
!LO:LB:g=original	!	!	!	!	!	!	!	!
2.F\	ca-	.	.	.	.	.	2d\	-tiſ-
*	*	*Xlig	*	*	*	*	*	*
.	.	1A	-ti-	.	.	.	2c/	-ti
4E\	.	.	.	.	.	.	.	.
4D\	.	.	.	.	2f\	-ti	1f\	a-
4C/	.	.	.	.	.	.	.	.
=47-	=47-	=47-	=47-	=47-	=47-	=47-	=47-	=47-
1D	-pti-	2A/	-ſti	0ryy	2d\	.	.	.
.	.	2A/	cap-	.	1d	a-	2f\	-uer-
1AA	-ui-	1A	-ti-	.	.	.	2e\	.
!	!	!	!	!	!LO:TX:b:t=P:problem=# below	!	!	!
.	.	.	.	.	2c#X/	.	2e\	-tiſ-
=48-	=48-	=48-	=48-	=48-	=48-	=48-	=48-	=48-
*	*	*lig	*	*	*	*	*	*
1F	.	1A	-ui-	0ryy	2d\	-uer-	2d\	-ti
.	.	.	.	.	2d\	-tiſ-	1a	ca-
1E	-ta-	1B	.	.	1e	-ti	.	.
.	.	.	.	.	.	.	2g\	-pti-
*	*	*Xlig	*	*	*	*	*	*
=49-	=49-	=49-	=49-	=49-	=49-	=49-	=49-	=49-
*	*	*lig	*	*	*	*	*	*
2AA/	-tem	1c	.	0ryy	0r	.	2f\	-vi-
2.A\	cap-	.	.	.	.	.	2e\	-ta-
.	.	1A	.	.	.	.	2e\	-tem
4G\	.	.	.	.	.	.	.	.
1F\	.	.	.	.	.	.	2f\	cap-
*	*	*Xlig	*	*	*	*	*	*
=50-	=50-	=50-	=50-	=50-	=50-	=50-	=50-	=50-
.	.	1G	-ta-	0ryy	2r	.	2c/	-ti-
2E\	-ti-	.	.	.	2cny/	cap-	2c/	-ui-
*	*	*	*	*	*	*	*custos:d	*
2.F\	-ui-	1F	-tem	.	2f\	-ti-	1c	-ta-
.	.	.	.	.	2.f\	-ui-	.	.
4E\	.	.	.	.	.	.	.	.
!	!	!	!	!	!	!	!LO:LB:g=original	!
=51-	=51-	=51-	=51-	=51-	=51-	=51-	=51-	=51-
*	*	*	*	*	*	*	*xywh-#62:5996,2084,4383,887	*
*	*	*lig	*	*	*	*	*	*
4D\	.	1F	Ia-	0ryy	.	.	1d	-tem
4C/	.	.	.	.	4e\	-ta-	.	.
2D/	-ta-	.	.	.	1d	-tem	.	.
1AA	-tem	1E	.	.	.	.	2r	.
*	*	*	*	*	*	*ij	*	*
.	.	.	.	.	2c#X/	cap-	2e\	Ja-
*	*	*Xlig	*	*	*	*	*	*
=52-	=52-	=52-	=52-	=52-	=52-	=52-	=52-	=52-
*	*	*custos:F	*	*	*	*	*	*
2r	.	00Dl	-cob	0ryy	2.d\	-ti-	2f\	.
2D/	Ia-	.	.	.	.	.	2d\	.
.	.	.	.	.	4cny/	-ui-	.	.
2GG/	-cob	.	.	.	2B-X/	-ta-	1d	.
2FF#X/	Ja-	.	.	.	2A/	-tem	.	.
*	*	*	*	*	*	*Xij	*	*
=53-	=53-	=53-	=53-	=53-	=53-	=53-	=53-	=53-
1GG	-cob.	.	.	0ryy	1G	Ja-	0dl	-cob.
1Dl	.	.	.	.	1Fl	-cob.	.	.
!	!	!LO:LB:g=original	!	!	!LO:LB:g=original	!	!	!
=54||	=54||	=54||	=54||	=54||	=54||	=54||	=54||	=54||
*	*	*xywh-#448:5818,1340,4548,937	*	*	*xywh-#253:1306,2061,4249,870	*	*	*
1F	Glo-	1F	Glo-	0ryy	1c	Glo-	2r	.
.	.	.	.	.	.	.	1f	Glo-
*custos:FF	*	*	*	*	*	*	*	*
*	*	*lig	*	*	*	*	*	*
1C	-ri-	1G	-ri-	.	1.c	-ri-	.	.
.	.	.	.	.	.	.	2e\	-ri-
!LO:LB:g=original	!	!	!	!	!	!	!	!
=55-	=55-	=55-	=55-	=55-	=55-	=55-	=55-	=55-
*xywh-#620:981,2873,4236,951	*	*	*	*	*	*	*	*
2FF/	-a	1A	.	0ryy	.	.	2.f\	-a
2.F\	Pa-	.	.	.	2c/	-a	.	.
.	.	.	.	.	.	.	4e\	.
*	*	*Xlig	*	*	*	*	*	*
.	.	2A,</	-a	.	1A	pa-	4d\	.
4E\	.	.	.	.	.	.	4c\	.
4D\	.	2A/	Pa-	.	.	.	4d\	.
4C/	.	.	.	.	.	.	4e\	.
=56-	=56-	=56-	=56-	=56-	=56-	=56-	=56-	=56-
1D	-tri	2A,</	-tri	0ryy	1d	-tri	2f\	.
.	.	2A,</	et	.	.	.	2f\	Pa-
2AA/	.	2A/	Fi-	.	1c	et	1e	-tri
2.A\	et	2A/	-li-	.	.	.	.	.
=57-	=57-	=57-	=57-	=57-	=57-	=57-	=57-	=57-
.	.	2A,</	-o	0ryy	2c/	fi-	2.a\	et
4G\	.	.	.	.	.	.	.	.
4F\	.	2A,</	et	.	2c/	-li-	.	.
4E\	.	.	.	.	.	.	4g\	.
2D/	.	1A	Spi-	.	2d\	-o	2f\	.
2C#X/	Fi-	.	.	.	2e\	et	2e\	Fi-
=58-	=58-	=58-	=58-	=58-	=58-	=58-	=58-	=58-
*	*	*lig	*	*	*	*	*	*
1D	-li-	1A	-ri-	0ryy	1f	Spi-	1d	-li-
2AA/	-o	1c	.	.	1e	-ri-	1c	-o
2Cny/	et	.	.	.	.	.	.	.
*	*	*Xlig	*	*	*	*	*	*
=59-	=59-	=59-	=59-	=59-	=59-	=59-	=59-	=59-
2D/	Spi-	2A/	-tu-	0ryy	2d\	-tu-	2r	.
*	*	*	*	*	*	*	*custos:d	*
1F	-ri-	2A/	-i	.	2c/	-i	2c/	et
!	!	!	!	!	!	!	!LO:LB:g=original	!
*	*	*	*	*	*	*	*xywh-#62:5932,2771,4447,1040	*
*	*	*lig	*	*	*	*	*	*
.	.	1A	ſan-	.	4A/	San-	2d\	Spi-
.	.	.	.	.	4G/	.	.	.
2F\	-tu-	.	.	.	4A/	.	1f\	-ri-
.	.	.	.	.	4B/	.	.	.
=60-	=60-	=60-	=60-	=60-	=60-	=60-	=60-	=60-
1C	-i	1G	.	0ryy	0c	.	.	.
.	.	.	.	.	.	.	4e\	.
.	.	.	.	.	.	.	4d\	.
*	*	*Xlig	*	*	*	*	*	*
*	*	*lig	*	*	*	*	*	*
1C	San-	1G	-cto	.	.	.	2e\	-tu-
.	.	.	.	.	.	.	2e\	-i
=61-	=61-	=61-	=61-	=61-	=61-	=61-	=61-	=61-
2FF/	-cto	1A	.	0ryy	1c	-cto	1f	San-
1F	.	.	.	.	.	.	.	.
*	*	*Xlig	*	*	*	*	*	*
*	*	*lig	*	*	*	*	*	*
.	.	1G	Si-	.	2r	.	1c	-cto
2E\	Si-	.	.	.	2c/	Sic-	.	.
=62-	=62-	=62-	=62-	=62-	=62-	=62-	=62-	=62-
1F	-cut	1F	.	0ryy	1.c	-ut	2r	.
.	.	.	.	.	.	.	1f	Sic-
*	*	*Xlig	*	*	*	*	*	*
*custos:FF	*	*	*	*	*	*	*	*
*	*	*lig	*	*	*	*	*	*
1C	e-	1G	-cut	.	.	.	.	.
*	*	*	*	*	*custos:c	*	*	*
.	.	.	.	.	2c/	e-	2e\	-ut
!LO:PB:g=original	!	!	!	!	!LO:LB:g=original	!	!	!
=63-	=63-	=63-	=63-	=63-	=63-	=63-	=63-	=63-
*xywh-#620:5477,636,4495,974	*	*	*	*	*xywh-#253:1318,2802,4249,881	*	*	*
*	*	*custos:A	*	*	*	*	*	*
2FF/	-rat	1A	.	0ryy	2c/	-rat	2.f\	e-
2.F\	.	.	.	.	2c/	in	.	.
.	.	.	.	.	.	.	4e\	.
*	*	*Xlig	*	*	*	*	*	*
*	*	*xywh-#448:5923,2113,4455,937	*	*	*	*	*	*
!	!	!LO:LB:g=original	!	!	!	!	!	!
.	.	2A/	e-	.	1A	prin-	4d\	.
4E\	.	.	.	.	.	.	4c\	.
4D\	.	2A/	-rat	.	.	.	4d\	.
4C/	.	.	.	.	.	.	4e\	.
=64-	=64-	=64-	=64-	=64-	=64-	=64-	=64-	=64-
1D	.	2A/	in	0ryy	2.d\	-ci-	2f\	.
.	.	2A/	prin-	.	.	.	2f\	-rat
.	.	.	.	.	4d\	-pi-	.	.
2AA/	.	2.A/	-ci-	.	0c	-o	1e	in
2.A\	in	.	.	.	.	.	.	.
.	.	4A/	pi -	.	.	.	.	.
=65-	=65-	=65-	=65-	=65-	=65-	=65-	=65-	=65-
!	!	!LO:TX:t=P:pętelka:problem	!	!	!	!	!	!
.	.	[2A/	-o	0ryy	.	.	2.a\	prin-
4G\	.	.	.	.	.	.	.	.
4F\	.	2A/],<	.	.	.	.	.	.
4E\	.	.	.	.	.	.	4g\	.
2D/	.	1A,<	et	.	2d\	et	2f\	-ci-
2C#X/	prin-	.	.	.	2e\	.	2e\	.
=66-	=66-	=66-	=66-	=66-	=66-	=66-	=66-	=66-
*	*	*lig	*	*	*	*	*	*
2.D/	-ci-	1A	nunc	0ryy	1f	nunc	1d	-pi-
4D/	-pi-	.	.	.	.	.	.	.
2AA/	-o	1c	.	.	1e	.	1c	-o
2Cny/	.	.	.	.	.	.	.	.
*	*	*Xlig	*	*	*	*	*	*
=67-	=67-	=67-	=67-	=67-	=67-	=67-	=67-	=67-
2D/	et	1A	et	0ryy	2d\	.	2r	.
*	*	*	*	*	*	*	*custos:d	*
1F	nunc	.	.	.	2c/	et	2c/	et
!	!	!	!	!	!	!	!LO:PB:g=original	!
*	*	*	*	*	*	*	*xywh-#63:1366,557,4180,978	*
*	*	*lig	*	*	*	*	*	*
.	.	1A	ſem-	.	4A/	.	2d\	nunc
.	.	.	.	.	4G/	.	.	.
2F\	.	.	.	.	4A/	.	1f\	.
.	.	.	.	.	4B/	.	.	.
=68-	=68-	=68-	=68-	=68-	=68-	=68-	=68-	=68-
1C	et	1G	.	0ryy	1c	.	.	.
.	.	.	.	.	.	.	4e\	et
.	.	.	.	.	.	.	4d\	.
*	*	*Xlig	*	*	*	*	*	*
*	*	*lig	*	*	*	*	*	*
1C	Sem-	1G	-per	.	1c	Sem-	2e\	.
.	.	.	.	.	.	.	2e\	ſem-
=69-	=69-	=69-	=69-	=69-	=69-	=69-	=69-	=69-
2FF/	-p(er)	1A	.	0ryy	0c	-per	1f	.
1F	.	.	.	.	.	.	.	.
*	*	*Xlig	*	*	*	*	*	*
*	*	*lig	*	*	*	*	*	*
.	.	1G	et	.	.	.	1c	-per
2E\	Et	.	.	.	.	.	.	.
=70-	=70-	=70-	=70-	=70-	=70-	=70-	=70-	=70-
2F\	in	1F	.	0ryy	2r	.	2r	.
2D/	ſe-	.	.	.	2d\	et	1f	et
*	*	*Xlig	*	*	*	*	*	*
*custos:FF	*	*	*	*	*	*	*	*
*	*	*lig	*	*	*	*	*	*
1C	-cu-	1G	in	.	1g	in	.	.
.	.	.	.	.	.	.	2e\	in
!LO:LB:g=original	!	!	!	!	!	!	!	!
=71-	=71-	=71-	=71-	=71-	=71-	=71-	=71-	=71-
*xywh-#620:5443,1448,4388,884	*	*	*	*	*	*	*	*
*	*	*custos:A	*	*	*	*	*	*
2FF/	-la	1A	.	0ryy	1.f	ſae-	2f\	ſae-
2.F\	ſe-	.	.	.	.	.	2d\	-cu-
*	*	*Xlig	*	*	*	*	*	*
*	*	*xywh-#448:5748,2817,4314,996	*	*	*	*	*	*
!	!	!LO:LB:g=original	!	!	!	!	!	!
.	.	1A	ſe-	.	.	.	2c/	-la
4E\	.	.	.	.	.	.	.	.
4D\	-cu-	.	.	.	2f\	-cu-	1f\	et
4C/	.	.	.	.	.	.	.	.
=72-	=72-	=72-	=72-	=72-	=72-	=72-	=72-	=72-
*	*	*	*	*	*custos:d	*	*	*
1D	-lo-	2A/	-cu-	0ryy	2d\	-la	.	.
*	*	*	*	*	*xywh-#253:5816,535,4317,904	*	*	*
!	!	!	!	!	!LO:PB:g=original	!	!	!
.	.	2A/	-la	.	1d	ſae-	2f\	in
1AA	-rum	1A	ſe-	.	.	.	2e\	ſ(ae-
.	.	.	.	.	2c#X/	-cu-	2e\	-cu)-
=73-	=73-	=73-	=73-	=73-	=73-	=73-	=73-	=73-
*	*	*lig	*	*	*	*	*	*
1F	.	1A	-cu-	0ryy	2d\	-lo-	2d\	-la
.	.	.	.	.	2d\	-rum	1a	ſae-
1E	.	1B	.	.	1e	.	.	.
.	.	.	.	.	.	.	2g\	-cu-
*	*	*Xlig	*	*	*	*	*	*
=74-	=74-	=74-	=74-	=74-	=74-	=74-	=74-	=74-
*	*	*lig	*	*	*	*	*	*
2AA/	.	1c	-lo-	0ryy	0r	.	2f\	-lo-
2.A\	ſe-	.	.	.	.	.	2e\	-ru(m)
.	.	1A	.	.	.	.	2e\	A-
4G\	.	.	.	.	.	.	.	.
1F\	-cu-	.	.	.	.	.	2f\	-men
*	*	*Xlig	*	*	*	*	*	*
=75-	=75-	=75-	=75-	=75-	=75-	=75-	=75-	=75-
.	.	1G	-rum	0ryy	2r	.	2c/	ſe-
*	*	*	*	*	*	*	*custos:c	*
2E\	-lo-	.	.	.	2cny/	ſe-	2c/	-cu-
!	!	!	!	!	!	!	!LO:LB:g=original	!
*	*	*	*	*	*	*	*xywh-#63:1326,1298,4145,914	*
2.F\	-rum	1F	A-	.	2f\	-cu-	1c	-lo-
.	.	.	.	.	2.f\	lo ­-	.	.
4E\	.	.	.	.	.	.	.	.
=76-	=76-	=76-	=76-	=76-	=76-	=76-	=76-	=76-
*	*	*lig	*	*	*	*	*	*
4D/	.	1F	-men	0ryy	.	.	1d	-rum
4C/	.	.	.	.	4e\	-rum	.	.
2D/	.	.	.	.	1d	.	.	.
1AA	.	1E	.	.	.	.	2r	.
!	!	!	!	!	!LO:TX:b:t=P:problem=# below	!	!	!
.	.	.	.	.	2c#X/	.	2e\	A-
*	*	*Xlig	*	*	*	*	*	*
=77-	=77-	=77-	=77-	=77-	=77-	=77-	=77-	=77-
2r	.	00Dl	.	0ryy	2.d\	A-	2f\	-men.
2D/	A-	.	.	.	.	.	2d\	.
.	.	.	.	.	4cny/	.	.	.
2GG/	.	.	.	.	2B-X/	.	1d	.
2FF#X/	.	.	.	.	2A/	.	.	.
=78-	=78-	=78-	=78-	=78-	=78-	=78-	=78-	=78-
1GG	-men.	.	.	0ryy	1G	-men.	0dl	.
1Dl	.	.	.	.	1F#Xl	.	.	.
==	==	==	==	==	==	==	==	==
*-	*-	*-	*-	*-	*-	*-	*-	*-
!!!system-decoration: [(s1,s2,s3,s4,s5)]
!!!RDF**kern: < = below
!!!RDF**kern: l = terminal long
!!!ENC: Mateusz Solarz
!!!END: 2022-02-10
!!!ENC: Marta Lawrence
!!!END: 2022-01-11
!!!ENC-iiif: Antoni Szymański
!!!END-iiif: 2022-09-03
